app/assets/images/payment_icons/aplus.svg

<svg xmlns="http://www.w3.org/2000/svg" fill="none" viewBox="0 0 50 32" height="32" width="50">
<g clip-path="url(#clip0_9660_18832)">
<rect style="fill:#130C0E;fill:color(display-p3 0.0745 0.0471 0.0549);fill-opacity:1;" fill="#130C0E" rx="2.15126" height="32" width="50"></rect>
<path style="fill:#00A651;fill:color(display-p3 0.0000 0.6510 0.3176);fill-opacity:1;" fill="#00A651" d="M21.9319 10.7193H22.7892L21.2865 7.75864C21.2719 7.72889 21.2451 7.72889 21.2329 7.75864L19.7254 10.7193H20.5364L20.6898 10.3692H21.7687L21.9319 10.7193ZM21.2207 9.18864L21.5033 9.80411H20.9431L21.2207 9.18864ZM25.5826 10.0649L24.9445 9.68056C24.813 9.91165 24.6157 10.081 24.2163 10.081C23.7438 10.081 23.4565 9.72174 23.4565 9.26414C23.4565 8.80654 23.7341 8.4519 24.1895 8.4519C24.5816 8.4519 24.7716 8.62808 24.8909 8.79739L25.5144 8.40157C25.2538 8.04235 24.8446 7.77694 24.1749 7.77694C23.3469 7.77694 22.6089 8.38784 22.6089 9.26414C22.6089 10.1404 23.3517 10.7582 24.2212 10.7582C24.8495 10.7582 25.2781 10.5477 25.5826 10.0649ZM26.6347 9.01704V7.81126H25.8066V10.7193H26.6347V9.96198L26.8953 9.66225L27.6332 10.7193H28.6122L27.4603 9.07195L28.4905 7.81126H27.5942L26.6371 9.01704H26.6347ZM28.8119 10.7193H31.0476V10.0649H29.64V9.56387H30.7603V8.94382H29.64V8.46563H30.9819V7.81126H28.8095V10.7193H28.8119ZM32.3311 9.80869H32.6136L33.1591 10.7193H34.0554L33.4124 9.68742C33.7802 9.52955 33.9774 9.22525 33.9774 8.84086C33.9774 8.24598 33.5391 7.81126 32.7524 7.81126H31.5006V10.7193H32.3287V9.80869H32.3311ZM32.3311 9.21381V8.47021H32.7135C32.996 8.47021 33.147 8.60291 33.147 8.84086C33.147 9.07881 32.996 9.21381 32.7135 9.21381H32.3311ZM34.3208 10.7193H35.1318L35.2049 9.47464L36.011 10.3212H36.0524L36.8269 9.47921L36.8999 10.7193H37.7158L37.5331 7.78152C37.5283 7.74948 37.5112 7.75406 37.4917 7.77694L36.0305 9.34193L34.5473 7.77694C34.5303 7.75406 34.5108 7.74948 34.5059 7.78152L34.3233 10.7193H34.3208ZM40.0489 10.7193H40.9037L39.4011 7.75864C39.3865 7.72889 39.3597 7.72889 39.3475 7.75864L37.84 10.7193H38.651L38.8069 10.3692H39.8857L40.0489 10.7193ZM39.3378 9.18864L39.6203 9.80411H39.0601L39.3378 9.18864ZM43.8092 10.7696C43.8603 10.8085 43.8725 10.7971 43.8725 10.7628V7.81126H43.0932V9.26872L41.1497 7.76321C41.0986 7.72432 41.0864 7.7472 41.0864 7.77236V10.7193H41.8657V9.26872L43.8092 10.7696ZM45.3581 10.7628C46.1764 10.7628 46.532 10.3761 46.532 9.84301C46.532 9.43117 46.3225 9.15432 45.7039 8.96212L45.2948 8.83171C45.1438 8.78595 45.0756 8.73104 45.0756 8.61892C45.0756 8.50681 45.1755 8.41758 45.3752 8.41758C45.6211 8.41758 45.7843 8.50452 45.9134 8.62808L46.3859 8.16132C46.2032 7.95998 45.8769 7.77694 45.3289 7.77694C44.7809 7.77694 44.2719 8.07209 44.2719 8.64409C44.2719 9.12457 44.591 9.38083 45.0415 9.5204L45.4068 9.63709C45.6114 9.70115 45.7113 9.76064 45.7113 9.88419C45.7113 10.0466 45.5651 10.1153 45.3191 10.1153C45.0099 10.1153 44.8223 9.97571 44.6713 9.79953L44.0698 10.2228C44.2597 10.4631 44.6567 10.7628 45.3532 10.7628H45.3581Z"></path>
<path style="fill:white;fill-opacity:1;" fill="white" d="M27.0091 14.6016H26.7112L27.5729 12.2547H27.8663L28.728 14.6016H28.4301L27.7288 12.626H27.7104L27.0091 14.6016ZM27.1191 13.6848H28.3201V13.9369H27.1191V13.6848ZM29.7719 14.6382C29.6069 14.6382 29.4648 14.5993 29.3457 14.5213C29.2265 14.4434 29.1348 14.3361 29.0706 14.1993C29.0065 14.0626 28.9744 13.9064 28.9744 13.7307C28.9744 13.5519 29.0072 13.3942 29.0729 13.2574C29.1394 13.1199 29.2318 13.0126 29.3502 12.9354C29.4694 12.8575 29.6085 12.8185 29.7674 12.8185C29.8911 12.8185 30.0026 12.8414 30.102 12.8873C30.2013 12.9331 30.2826 12.9973 30.346 13.0798C30.4094 13.1623 30.4488 13.2586 30.4641 13.3686H30.1936C30.173 13.2883 30.1272 13.2173 30.0561 13.1554C29.9858 13.0928 29.8911 13.0615 29.7719 13.0615C29.6665 13.0615 29.5741 13.089 29.4946 13.144C29.4159 13.1982 29.3544 13.275 29.3101 13.3743C29.2666 13.4728 29.2448 13.5886 29.2448 13.7215C29.2448 13.8575 29.2662 13.9759 29.309 14.0767C29.3525 14.1776 29.4136 14.2559 29.4923 14.3116C29.5718 14.3674 29.665 14.3953 29.7719 14.3953C29.8422 14.3953 29.906 14.3831 29.9633 14.3586C30.0206 14.3342 30.0691 14.299 30.1088 14.2532C30.1486 14.2074 30.1768 14.1524 30.1936 14.0882H30.4641C30.4488 14.1921 30.411 14.2857 30.3506 14.3689C30.291 14.4514 30.212 14.5171 30.1134 14.566C30.0156 14.6142 29.9018 14.6382 29.7719 14.6382ZM31.5745 14.6382C31.4094 14.6382 31.2674 14.5993 31.1482 14.5213C31.029 14.4434 30.9373 14.3361 30.8732 14.1993C30.809 14.0626 30.7769 13.9064 30.7769 13.7307C30.7769 13.5519 30.8098 13.3942 30.8754 13.2574C30.9419 13.1199 31.0343 13.0126 31.1528 12.9354C31.2719 12.8575 31.411 12.8185 31.5699 12.8185C31.6936 12.8185 31.8052 12.8414 31.9045 12.8873C32.0038 12.9331 32.0852 12.9973 32.1486 13.0798C32.212 13.1623 32.2513 13.2586 32.2666 13.3686H31.9962C31.9755 13.2883 31.9297 13.2173 31.8586 13.1554C31.7884 13.0928 31.6936 13.0615 31.5745 13.0615C31.469 13.0615 31.3766 13.089 31.2971 13.144C31.2185 13.1982 31.157 13.275 31.1127 13.3743C31.0691 13.4728 31.0473 13.5886 31.0473 13.7215C31.0473 13.8575 31.0687 13.9759 31.1115 14.0767C31.1551 14.1776 31.2162 14.2559 31.2949 14.3116C31.3743 14.3674 31.4675 14.3953 31.5745 14.3953C31.6447 14.3953 31.7085 14.3831 31.7658 14.3586C31.8231 14.3342 31.8716 14.299 31.9114 14.2532C31.9511 14.2074 31.9793 14.1524 31.9962 14.0882H32.2666C32.2513 14.1921 32.2135 14.2857 32.1531 14.3689C32.0936 14.4514 32.0145 14.5171 31.9159 14.566C31.8182 14.6142 31.7043 14.6382 31.5745 14.6382ZM33.377 14.6382C33.2181 14.6382 33.0787 14.6004 32.9587 14.5248C32.8395 14.4492 32.7463 14.3433 32.6791 14.2074C32.6127 14.0714 32.5794 13.9125 32.5794 13.7307C32.5794 13.5473 32.6127 13.3873 32.6791 13.2505C32.7463 13.1138 32.8395 13.0076 32.9587 12.932C33.0787 12.8563 33.2181 12.8185 33.377 12.8185C33.5359 12.8185 33.6749 12.8563 33.7941 12.932C33.914 13.0076 34.0072 13.1138 34.0737 13.2505C34.1409 13.3873 34.1745 13.5473 34.1745 13.7307C34.1745 13.9125 34.1409 14.0714 34.0737 14.2074C34.0072 14.3433 33.914 14.4492 33.7941 14.5248C33.6749 14.6004 33.5359 14.6382 33.377 14.6382ZM33.377 14.3953C33.4977 14.3953 33.597 14.3644 33.6749 14.3025C33.7528 14.2406 33.8105 14.1592 33.8479 14.0584C33.8854 13.9576 33.9041 13.8483 33.9041 13.7307C33.9041 13.613 33.8854 13.5034 33.8479 13.4018C33.8105 13.3002 33.7528 13.2181 33.6749 13.1554C33.597 13.0928 33.4977 13.0615 33.377 13.0615C33.2563 13.0615 33.157 13.0928 33.079 13.1554C33.0011 13.2181 32.9434 13.3002 32.906 13.4018C32.8686 13.5034 32.8499 13.613 32.8499 13.7307C32.8499 13.8483 32.8686 13.9576 32.906 14.0584C32.9434 14.1592 33.0011 14.2406 33.079 14.3025C33.157 14.3644 33.2563 14.3953 33.377 14.3953ZM35.6966 13.8819V12.8414H35.967V14.6016H35.6966V14.3036H35.6783C35.637 14.393 35.5728 14.469 35.4857 14.5317C35.3987 14.5935 35.2886 14.6245 35.1557 14.6245C35.0457 14.6245 34.9479 14.6004 34.8624 14.5523C34.7768 14.5034 34.7096 14.4301 34.6607 14.3323C34.6118 14.2337 34.5874 14.1096 34.5874 13.9599V12.8414H34.8578V13.9415C34.8578 14.0699 34.8937 14.1722 34.9655 14.2486C35.0381 14.325 35.1305 14.3632 35.2428 14.3632C35.31 14.3632 35.3784 14.346 35.4479 14.3116C35.5182 14.2773 35.577 14.2246 35.6244 14.1535C35.6725 14.0825 35.6966 13.9919 35.6966 13.8819ZM36.7328 13.5427V14.6016H36.4624V12.8414H36.7236V13.1165H36.7465C36.7878 13.0271 36.8504 12.9553 36.9345 12.901C37.0185 12.846 37.127 12.8185 37.2599 12.8185C37.3791 12.8185 37.4834 12.843 37.5727 12.8919C37.6621 12.94 37.7316 13.0133 37.7813 13.1119C37.831 13.2097 37.8558 13.3334 37.8558 13.4832V14.6016H37.5853V13.5015C37.5853 13.3632 37.5494 13.2555 37.4776 13.1783C37.4058 13.1004 37.3073 13.0615 37.182 13.0615C37.0957 13.0615 37.0185 13.0802 36.9505 13.1176C36.8833 13.155 36.8302 13.2097 36.7912 13.2815C36.7523 13.3533 36.7328 13.4404 36.7328 13.5427ZM39.1154 12.8414V13.0706H38.2033V12.8414H39.1154ZM38.4691 12.4197H38.7396V14.0974C38.7396 14.1738 38.7506 14.2311 38.7728 14.2692C38.7957 14.3067 38.8247 14.3319 38.8599 14.3449C38.8958 14.3571 38.9336 14.3632 38.9733 14.3632C39.0031 14.3632 39.0276 14.3617 39.0467 14.3586C39.0658 14.3548 39.0811 14.3518 39.0925 14.3495L39.1475 14.5924C39.1292 14.5993 39.1036 14.6061 39.0707 14.613C39.0379 14.6207 38.9963 14.6245 38.9458 14.6245C38.8694 14.6245 38.7946 14.6081 38.7212 14.5752C38.6487 14.5424 38.5883 14.4923 38.5402 14.4251C38.4928 14.3579 38.4691 14.2731 38.4691 14.1707V12.4197Z"></path>
<path style="fill:#DEDDD8;fill:color(display-p3 0.8706 0.8667 0.8471);fill-opacity:1;" fill="#DEDDD8" d="M28.2127 34.0722C30.3969 34.0722 32.4153 32.3404 32.4153 29.8261C32.4153 27.3118 30.3969 25.5801 28.2127 25.5801C26.0285 25.5801 24.01 27.3145 24.01 29.8261C24.01 32.3377 25.9864 34.0722 28.2127 34.0722Z"></path>
<path style="fill:#DEDDD8;fill:color(display-p3 0.8706 0.8667 0.8471);fill-opacity:1;" fill="#DEDDD8" d="M14.3326 33.435H22.2326L8.36414 3.45446C8.23782 3.1506 7.98519 3.1506 7.85887 3.45446L-6.05165 33.435H1.42993L2.85887 29.8827H12.8194L14.3326 33.435ZM7.7773 17.9244L10.3826 24.163H5.21414L7.7773 17.9244Z"></path>
<path style="fill:#CE2128;fill:color(display-p3 0.8078 0.1294 0.1569);fill-opacity:1;" fill="#CE2128" d="M48.0586 22.8574H41.6156C38.2005 22.8574 39.8301 28.05 36.9205 29.8167C36.9205 29.8167 42.14 29.9109 43.8018 29.8167C46.6899 29.6581 45.4341 24.6833 48.0586 22.8574Z"></path>
<path style="fill:#AEB1B1;fill:color(display-p3 0.6824 0.6941 0.6941);fill-opacity:1;" fill="#AEB1B1" d="M42.2261 24.8469C42.2261 24.8469 42.2261 24.8469 42.2261 24.8523C42.4143 25.2852 42.5057 25.7639 42.6671 26.42V26.4227H43.5679C43.5626 26.4012 43.5572 26.377 43.5491 26.3555C43.3851 25.7397 43.2479 25.0217 43.1269 24.8093C43.014 24.613 42.7854 24.4973 42.6241 24.4785C42.3982 24.5323 42.296 24.6802 42.2234 24.8469"></path>
<path style="fill:#AEB1B1;fill:color(display-p3 0.6824 0.6941 0.6941);fill-opacity:1;" fill="#AEB1B1" d="M44.0176 27.8114C43.9073 27.6151 43.8294 27.4027 43.7621 27.1795C43.7352 27.1714 43.7057 27.166 43.6707 27.166H42.8478C42.9285 27.4806 43.0119 27.7549 43.1114 27.9593C43.1974 28.1368 43.3426 28.2228 43.4744 28.2443H44.3618C44.2058 28.161 44.1305 28.0077 44.0176 27.8114Z"></path>
<path style="fill:white;fill-opacity:1;" fill="white" d="M43.7626 27.1783C43.9267 27.2241 43.9858 27.3827 43.9858 27.3827V26.6405C43.9858 26.6405 43.8675 26.4227 43.6551 26.4227H41.7808V26.42C41.9394 25.7639 42.0335 25.2852 42.2218 24.8523C42.2218 24.8496 42.2218 24.8469 42.2218 24.8469C42.2944 24.6802 42.3966 24.5323 42.6224 24.4785H41.8184C41.6571 24.4973 41.4285 24.613 41.3156 24.8093C41.1945 25.0217 41.0574 25.7397 40.8934 26.3555C40.7562 26.8718 40.6702 27.38 40.4255 27.8103C40.3152 28.0066 40.2399 28.1599 40.0813 28.2432H40.9687C41.0977 28.2217 41.2456 28.1357 41.3317 27.9582C41.4312 27.7538 41.5119 27.4795 41.5952 27.1649H43.6685C43.7008 27.1649 43.733 27.1703 43.7599 27.1783"></path>
<path style="fill:white;fill-opacity:1;" fill="white" d="M44.4985 24.8906H44.1274V24.5195H43.8478V24.8906H43.4794V25.1676H43.8478V25.5387H44.1274V25.1676H44.4985V24.8906Z"></path>
<path stroke-miterlimit="10" stroke-width="0.102185" style="stroke:white;stroke-opacity:1;" stroke="white" d="M44.4985 24.8906H44.1274V24.5195H43.8478V24.8906H43.4794V25.1676H43.8478V25.5387H44.1274V25.1676H44.4985V24.8906Z"></path>
</g>
<defs>
<clipPath id="clip0_9660_18832">
<rect style="fill:white;fill-opacity:1;" fill="white" rx="2.15126" height="32" width="50"></rect>
</clipPath>
</defs>
</svg>

<svg xmlns="http://www.w3.org/2000/svg" width="50" height="32" fill="none"><g clip-path="url(#a)"><rect width="50" height="32" fill="#130C0E" rx="2.151" style="fill:#130c0e;fill:color(display-p3 .0745 .0471 .0549);fill-opacity:1"/><path fill="#00A651" d="M21.932 10.72h.857l-1.503-2.961c-.014-.03-.04-.03-.053 0l-1.508 2.96h.811l.154-.35h1.079l.163.35Zm-.711-1.531.282.615h-.56l.278-.615Zm4.362.876-.638-.384c-.132.23-.33.4-.729.4-.472 0-.76-.36-.76-.817 0-.457.278-.812.733-.812.393 0 .583.176.702.345l.623-.395c-.26-.36-.67-.625-1.34-.625-.827 0-1.565.61-1.565 1.487 0 .876.743 1.494 1.612 1.494.628 0 1.057-.21 1.362-.693Zm1.052-1.048V7.811h-.828v2.908h.828v-.757l.26-.3.738 1.057h.98L27.46 9.072l1.03-1.26h-.896l-.957 1.205h-.002Zm2.177 1.702h2.236v-.654H29.64v-.501h1.12v-.62h-1.12v-.478h1.342V7.81H28.81v2.908h.002Zm3.52-.91h.282l.545.91h.896l-.643-1.032a.88.88 0 0 0 .565-.846c0-.595-.438-1.03-1.225-1.03h-1.251v2.908h.828v-.91h.002Zm0-.595V8.47h.382c.282 0 .433.133.433.37 0 .239-.151.374-.433.374h-.383Zm1.989 1.505h.81l.074-1.244.806.846h.041l.775-.842.073 1.24h.816l-.183-2.937c-.005-.033-.022-.028-.041-.005L36.03 9.342l-1.484-1.565c-.017-.023-.036-.028-.041.005l-.183 2.937h-.002Zm5.728 0h.855L39.4 7.76c-.015-.03-.041-.03-.054 0l-1.507 2.96h.811l.156-.35h1.079l.163.35Zm-.711-1.53.282.615h-.56l.278-.615Zm4.471 1.58c.051.04.064.028.064-.006V7.81h-.78V9.27L41.15 7.763c-.051-.039-.064-.016-.064.01v2.946h.78V9.27l1.943 1.5Zm1.55-.006c.817 0 1.173-.387 1.173-.92 0-.412-.21-.689-.828-.88l-.41-.131c-.15-.046-.218-.101-.218-.213 0-.112.1-.201.3-.201.245 0 .408.087.537.21l.473-.467c-.183-.201-.51-.384-1.057-.384-.548 0-1.057.295-1.057.867 0 .48.319.737.77.876l.365.117c.204.064.304.124.304.247 0 .163-.146.231-.392.231-.31 0-.497-.14-.648-.315l-.601.423c.19.24.587.54 1.283.54h.005Z" style="fill:#00a651;fill:color(display-p3 0 .651 .3176);fill-opacity:1"/><path fill="#fff" d="M27.01 14.602h-.299l.862-2.347h.293l.862 2.347h-.298l-.701-1.976h-.019l-.7 1.976Zm.11-.917h1.2v.252h-1.2v-.252Zm2.652.953a.76.76 0 0 1-.426-.117.761.761 0 0 1-.275-.322 1.092 1.092 0 0 1-.097-.468c0-.18.033-.337.099-.474a.745.745 0 0 1 .694-.439c.124 0 .236.023.335.07a.6.6 0 0 1 .362.481h-.27a.412.412 0 0 0-.422-.307.475.475 0 0 0-.277.082.537.537 0 0 0-.185.23.854.854 0 0 0-.065.348c0 .136.021.254.064.355.043.1.105.179.183.235.08.055.173.083.28.083.07 0 .134-.012.191-.036a.394.394 0 0 0 .23-.27h.271a.626.626 0 0 1-.35.477.763.763 0 0 1-.342.072Zm1.803 0a.76.76 0 0 1-.427-.117.76.76 0 0 1-.275-.322 1.09 1.09 0 0 1-.096-.468c0-.18.033-.337.098-.474a.745.745 0 0 1 .695-.439c.124 0 .235.023.334.07a.6.6 0 0 1 .362.481h-.27a.411.411 0 0 0-.422-.307.475.475 0 0 0-.277.082.538.538 0 0 0-.184.23.852.852 0 0 0-.066.348c0 .136.022.254.064.355.044.1.105.179.184.235.08.055.172.083.28.083.07 0 .134-.012.19-.036a.395.395 0 0 0 .231-.27h.27a.626.626 0 0 1-.35.477.763.763 0 0 1-.341.072Zm1.802 0a.768.768 0 0 1-.418-.113.77.77 0 0 1-.28-.318 1.075 1.075 0 0 1-.1-.476c0-.184.034-.344.1-.48a.769.769 0 0 1 .28-.319.767.767 0 0 1 .418-.114c.159 0 .298.038.417.114a.76.76 0 0 1 .28.319c.067.136.1.296.1.48 0 .181-.033.34-.1.476a.76.76 0 0 1-.28.318.762.762 0 0 1-.417.113Zm0-.243c.12 0 .22-.03.298-.092a.547.547 0 0 0 .173-.245c.037-.1.056-.21.056-.327a.942.942 0 0 0-.056-.33.555.555 0 0 0-.173-.246.46.46 0 0 0-.298-.093c-.12 0-.22.03-.298.093a.555.555 0 0 0-.173.247.945.945 0 0 0-.056.329c0 .117.019.227.056.327.037.101.095.183.173.245a.465.465 0 0 0 .298.092Zm2.32-.513v-1.04h.27v1.76h-.27v-.298h-.019a.578.578 0 0 1-.192.228.556.556 0 0 1-.33.092.588.588 0 0 1-.294-.072.505.505 0 0 1-.201-.22.836.836 0 0 1-.074-.372V12.84h.27v1.1c0 .129.037.231.108.308a.366.366 0 0 0 .278.114.46.46 0 0 0 .454-.481Zm1.036-.34v1.06h-.27v-1.76h.26v.274h.023a.503.503 0 0 1 .188-.215.584.584 0 0 1 .326-.082c.12 0 .223.024.313.073.09.048.159.121.208.22.05.098.075.221.075.371v1.119h-.27v-1.1a.456.456 0 0 0-.108-.324.382.382 0 0 0-.296-.117.472.472 0 0 0-.232.057.402.402 0 0 0-.159.163.542.542 0 0 0-.058.262Zm2.382-.7v.229h-.912v-.23h.912Zm-.646-.422h.27v1.677a.35.35 0 0 0 .034.172.172.172 0 0 0 .087.076.35.35 0 0 0 .113.018c.03 0 .055-.001.074-.004l.046-.01.054.243a.548.548 0 0 1-.201.032.544.544 0 0 1-.225-.049.446.446 0 0 1-.18-.15.43.43 0 0 1-.072-.254V12.42Z" style="fill:#fff;fill-opacity:1"/><path fill="#DEDDD8" d="M28.213 34.072a4.202 4.202 0 0 0 4.202-4.246 4.202 4.202 0 1 0-8.405 0c0 2.512 1.976 4.246 4.203 4.246ZM14.333 33.435h7.9L8.364 3.455c-.126-.304-.379-.304-.505 0l-13.91 29.98h7.48l1.43-3.552h9.96l1.514 3.552Zm-6.556-15.51 2.606 6.238H5.214l2.563-6.239Z" style="fill:#deddd8;fill:color(display-p3 .8706 .8667 .8471);fill-opacity:1"/><path fill="#CE2128" d="M48.059 22.857h-6.443c-3.416 0-1.786 5.193-4.696 6.96 0 0 5.22.094 6.882 0 2.888-.159 1.632-5.134 4.257-6.96Z" style="fill:#ce2128;fill:color(display-p3 .8078 .1294 .1569);fill-opacity:1"/><path fill="#AEB1B1" d="M42.226 24.847v.005c.188.433.28.912.441 1.568v.003h.9c-.004-.022-.01-.046-.018-.067-.164-.616-.301-1.334-.422-1.547a.72.72 0 0 0-.503-.33c-.226.053-.328.201-.4.368M44.018 27.811a3.11 3.11 0 0 1-.256-.631.31.31 0 0 0-.091-.014h-.823c.08.315.164.589.263.793a.495.495 0 0 0 .363.285h.888c-.156-.083-.232-.236-.344-.433Z" style="fill:#aeb1b1;fill:color(display-p3 .6824 .6941 .6941);fill-opacity:1"/><path fill="#fff" d="M43.763 27.178a.36.36 0 0 1 .223.205v-.742s-.118-.218-.33-.218H41.78v-.003c.158-.656.252-1.135.44-1.568v-.005c.073-.167.176-.315.401-.369h-.804a.72.72 0 0 0-.502.331c-.122.213-.259.93-.423 1.546-.137.517-.223 1.025-.468 1.455-.11.197-.185.35-.344.433h.888a.5.5 0 0 0 .363-.285c.1-.204.18-.478.263-.793h2.074c.032 0 .064.005.09.013M44.498 24.89h-.37v-.37h-.28v.37h-.369v.278h.369v.37h.28v-.37h.37v-.277Z" style="fill:#fff;fill-opacity:1"/><path stroke="#fff" stroke-miterlimit="10" stroke-width=".102" d="M44.498 24.89h-.37v-.37h-.28v.37h-.369v.278h.369v.37h.28v-.37h.37v-.277Z" style="stroke:#fff;stroke-opacity:1"/></g><defs><clipPath id="a"><rect width="50" height="32" fill="#fff" rx="2.151" style="fill:#fff;fill-opacity:1"/></clipPath></defs></svg>
